Sources/FrostedUI/Resources/Icons.xcassets/truck20.imageset/truck-20.svg

<svg width="20" height="20" viewBox="0 0 20 20" fill="none" xmlns="http://www.w3.org/2000/svg" data-fui-icon="true">
  <path
    d="M11.8438 3.3125C13.8038 3.3125 15.3182 5.03459 15.0674 6.97852L15.0166 7.375H16.5342C17.4101 7.375 18.2108 7.86992 18.6025 8.65332L19.5146 10.4785C19.7249 10.899 19.8027 11.3734 19.7363 11.8389L19.3721 14.3896C19.2093 15.5289 18.2328 16.375 17.082 16.375H16.9346C16.647 17.7318 15.4425 18.75 14 18.75C12.5575 18.75 11.353 17.7318 11.0654 16.375H8.93457C8.64701 17.7318 7.44251 18.75 6 18.75C4.50259 18.75 3.26115 17.653 3.03613 16.2188C1.64502 15.7557 0.724628 14.3212 1.00391 12.7852L1.14648 12H1C0.585786 12 0.25 11.6642 0.25 11.25C0.25 10.8358 0.585786 10.5 1 10.5H4C4.41421 10.5 4.75 10.8358 4.75 11.25C4.75 11.6642 4.41421 12 4 12H2.67188L2.47949 13.0537C2.35941 13.7147 2.67804 14.3376 3.20801 14.6553C3.64557 13.5402 4.72972 12.75 6 12.75C7.35244 12.75 8.49561 13.645 8.87012 14.875H11.1299C11.3835 14.0419 11.9902 13.3634 12.7754 13.0117L13.5801 6.78613C13.7149 5.73955 12.899 4.8125 11.8438 4.8125H3.75C3.3358 4.81248 3 4.4767 3 4.0625C3 3.6483 3.3358 3.31252 3.75 3.3125H11.8438ZM6 14.25C5.17157 14.25 4.5 14.9216 4.5 15.75C4.5 16.5784 5.17157 17.25 6 17.25C6.82843 17.25 7.5 16.5784 7.5 15.75C7.5 14.9216 6.82843 14.25 6 14.25ZM14 14.25C13.1716 14.25 12.5 14.9216 12.5 15.75C12.5 16.5784 13.1716 17.25 14 17.25C14.8284 17.25 15.5 16.5784 15.5 15.75C15.5 14.9216 14.8284 14.25 14 14.25ZM14.3203 12.7666C15.5305 12.895 16.5256 13.7434 16.8701 14.875H17.082C17.4863 14.875 17.8294 14.5779 17.8867 14.1777L18.251 11.627C18.2743 11.4634 18.2477 11.2962 18.1738 11.1484L17.2607 9.32422C17.1231 9.04899 16.8419 8.875 16.5342 8.875H14.8232L14.3203 12.7666ZM7 6.75C7.41421 6.75 7.75 7.08579 7.75 7.5C7.75 7.91421 7.41421 8.25 7 8.25H1C0.585786 8.25 0.25 7.91421 0.25 7.5C0.25 7.08579 0.585786 6.75 1 6.75H7Z"
    fill="currentColor"
  />
</svg>

<svg xmlns="http://www.w3.org/2000/svg" width="20" height="20" fill="none" data-fui-icon="true" viewBox="0 0 20 20"><path fill="currentColor" d="M11.844 3.313a3.25 3.25 0 0 1 3.223 3.666l-.05.396h1.517c.876 0 1.677.495 2.069 1.278l.912 1.826c.21.42.288.894.221 1.36l-.364 2.55a2.31 2.31 0 0 1-2.29 1.986h-.147a3.001 3.001 0 0 1-5.87 0h-2.13a3 3 0 0 1-5.899-.156 3.046 3.046 0 0 1-2.032-3.434L1.146 12H1a.75.75 0 0 1 0-1.5h3A.75.75 0 0 1 4 12H2.672l-.193 1.054c-.12.66.199 1.284.729 1.601a3 3 0 0 1 5.662.22h2.26a3 3 0 0 1 1.645-1.863l.805-6.226a1.75 1.75 0 0 0-1.736-1.973H3.75a.75.75 0 0 1 0-1.5zM6 14.25a1.5 1.5 0 1 0 0 3 1.5 1.5 0 0 0 0-3m8 0a1.5 1.5 0 1 0 0 3 1.5 1.5 0 0 0 0-3m.32-1.483a3 3 0 0 1 2.55 2.108h.212a.81.81 0 0 0 .805-.697l.364-2.551a.8.8 0 0 0-.077-.479l-.913-1.824a.81.81 0 0 0-.727-.449h-1.71zM7 6.75a.75.75 0 0 1 0 1.5H1a.75.75 0 0 1 0-1.5z"/></svg>
